**harm	**harte	**timestamp	**phrase	**leadinstrument	**kern
*M4/4	*M4/4	*	*	*	*
*G:	*G:	*	*	*	*G:
1r;	N	0	.	r	1r;
=1	=1	=1	=1	=1	=1
*>A2_intro	*>A2_intro	*>A2_intro	*>A2_intro	*>A2_intro	*>A2_intro
1I	G:maj	0.255	newline	acoustic guitar	1G 1b 1dd
=2	=2	=2	=2	=2	=2
1Vb	D:maj/3	2.617	.	acoustic guitar	1d 1F# 1a
=3	=3	=3	=3	=3	=3
1I	G:maj	4.978	.	acoustic guitar	1G 1b 1dd
=4	=4	=4	=4	=4	=4
1Vb	D:maj/3	7.34	.	acoustic guitar	1d 1F# 1a
=5	=5	=5	=5	=5	=5
*>A_verse	*>A_verse	*>A_verse	*>A_verse	*>A_verse	*>A_verse
1I	G:maj	9.701	newline	voice	1G 1b 1dd
=6	=6	=6	=6	=6	=6
1Vb	D:maj/3	12.038	.	voice	1d 1F# 1a
=7	=7	=7	=7	=7	=7
1I	G:maj	14.375	.	voice	1G 1b 1dd
=8	=8	=8	=8	=8	=8
1Vb	D:maj/3	16.711	.	voice	1d 1F# 1a
=9	=9	=9	=9	=9	=9
1I	G:maj	19.048	newline	voice	1G 1b 1dd
=10	=10	=10	=10	=10	=10
1Vb	D:maj/3	21.396	.	voice	1d 1F# 1a
=11	=11	=11	=11	=11	=11
1I	G:maj	23.744	.	voice	1G 1b 1dd
=12	=12	=12	=12	=12	=12
1Vb	D:maj/3	26.092	.	voice	1d 1F# 1a
=13	=13	=13	=13	=13	=13
*>B_chorus	*>B_chorus	*>B_chorus	*>B_chorus	*>B_chorus	*>B_chorus
1ii	A:min	28.441	newline	voice	1A 1cc 1ee
=14	=14	=14	=14	=14	=14
1vi7	E:min7	30.734	.	voice	1E 1g 1b 1dd
=15	=15	=15	=15	=15	=15
1V	D:maj	33.027	.	voice	1D 1f# 1a
=16	=16	=16	=16	=16	=16
1V	D:maj	35.321	.	voice	1D 1f# 1a
=17	=17	=17	=17	=17	=17
1ii	A:min	37.614	newline	voice	1A 1cc 1ee
=18	=18	=18	=18	=18	=18
1vi7	E:min7	39.885	.	voice	1E 1g 1b 1dd
=19	=19	=19	=19	=19	=19
1V	D:maj	42.156	.	voice	1D 1f# 1a
=20	=20	=20	=20	=20	=20
1V	D:maj	44.427	.	voice	1D 1f# 1a
=21	=21	=21	=21	=21	=21
*>C_verse	*>C_verse	*>C_verse	*>C_verse	*>C_verse	*>C_verse
1I	G:maj	46.698	newline	voice	1G 1b 1dd
=22	=22	=22	=22	=22	=22
1V	D:maj	49.06	.	voice	1D 1f# 1a
=23	=23	=23	=23	=23	=23
1I	G:maj	51.423	.	voice	1G 1b 1dd
=24	=24	=24	=24	=24	=24
1V	D:maj	53.785	.	voice	1D 1f# 1a
=25	=25	=25	=25	=25	=25
1I	G:maj	56.147	newline	voice	1G 1b 1dd
=26	=26	=26	=26	=26	=26
1V	D:maj	58.473	.	voice	1D 1f# 1a
=27	=27	=27	=27	=27	=27
1I	G:maj	60.799	.	voice	1G 1b 1dd
=28	=28	=28	=28	=28	=28
1V	D:maj	63.125	.	voice	1D 1f# 1a
=29	=29	=29	=29	=29	=29
*>B_chorus	*>B_chorus	*>B_chorus	*>B_chorus	*>B_chorus	*>B_chorus
1ii	A:min	65.451	newline	voice	1A 1cc 1ee
=30	=30	=30	=30	=30	=30
1vi7	E:min7	67.752	.	voice	1E 1g 1b 1dd
=31	=31	=31	=31	=31	=31
1V	D:maj	70.053	.	voice	1D 1f# 1a
=32	=32	=32	=32	=32	=32
1V	D:maj	72.354	.	voice	1D 1f# 1a
=33	=33	=33	=33	=33	=33
1ii	A:min	74.655	newline	voice	1A 1cc 1ee
=34	=34	=34	=34	=34	=34
1vi7	E:min7	76.999	.	voice	1E 1g 1b 1dd
=35	=35	=35	=35	=35	=35
1V	D:maj	79.343	.	voice	1D 1f# 1a
=36	=36	=36	=36	=36	=36
1V	D:maj	81.687	.	voice	1D 1f# 1a
=37	=37	=37	=37	=37	=37
*>D_solo	*>D_solo	*>D_solo	*>D_solo	*>D_solo	*>D_solo
1I	G:maj	84.031	newline	guitar	1G 1b 1dd
=38	=38	=38	=38	=38	=38
1V	D:maj	86.381	.	guitar	1D 1f# 1a
=39	=39	=39	=39	=39	=39
1I	G:maj	88.73	.	guitar	1G 1b 1dd
=40	=40	=40	=40	=40	=40
1V	D:maj	91.079	.	guitar	1D 1f# 1a
=41	=41	=41	=41	=41	=41
1I	G:maj	93.429	newline	guitar	1G 1b 1dd
=42	=42	=42	=42	=42	=42
1V	D:maj	95.726	.	guitar	1D 1f# 1a
=43	=43	=43	=43	=43	=43
1I	G:maj	98.023	.	guitar	1G 1b 1dd
=44	=44	=44	=44	=44	=44
1V	D:maj	100.321	.	guitar	1D 1f# 1a
=45	=45	=45	=45	=45	=45
1ii	A:min	102.618	newline	guitar	1A 1cc 1ee
=46	=46	=46	=46	=46	=46
1vi7	E:min7	104.973	.	guitar	1E 1g 1b 1dd
=47	=47	=47	=47	=47	=47
1V	D:maj	107.328	.	guitar	1D 1f# 1a
=48	=48	=48	=48	=48	=48
1V	D:maj	109.684	.	guitar	1D 1f# 1a
=49	=49	=49	=49	=49	=49
1ii	A:min	112.039	newline	guitar	1A 1cc 1ee
=50	=50	=50	=50	=50	=50
1vi7	E:min7	114.389	.	guitar	1E 1g 1b 1dd
=51	=51	=51	=51	=51	=51
1V	D:maj	116.74	.	guitar	1D 1f# 1a
=52	=52	=52	=52	=52	=52
1V	D:maj	119.09	.	guitar	1D 1f# 1a
=53	=53	=53	=53	=53	=53
*>C_verse	*>C_verse	*>C_verse	*>C_verse	*>C_verse	*>C_verse
1I	G:maj	121.44	newline	voice	1G 1b 1dd
=54	=54	=54	=54	=54	=54
1V	D:maj	123.813	.	voice	1D 1f# 1a
=55	=55	=55	=55	=55	=55
1I	G:maj	126.186	.	voice	1G 1b 1dd
=56	=56	=56	=56	=56	=56
1V	D:maj	128.559	.	voice	1D 1f# 1a
=57	=57	=57	=57	=57	=57
1I	G:maj	130.932	newline	voice	1G 1b 1dd
=58	=58	=58	=58	=58	=58
1V	D:maj	133.279	.	voice	1D 1f# 1a
=59	=59	=59	=59	=59	=59
1I	G:maj	135.627	.	voice	1G 1b 1dd
=60	=60	=60	=60	=60	=60
1V	D:maj	137.975	.	voice	1D 1f# 1a
=61	=61	=61	=61	=61	=61
*>B_chorus	*>B_chorus	*>B_chorus	*>B_chorus	*>B_chorus	*>B_chorus
1ii	A:min	140.322	newline	voice	1A 1cc 1ee
=62	=62	=62	=62	=62	=62
1vi7	E:min7	142.598	.	voice	1E 1g 1b 1dd
=63	=63	=63	=63	=63	=63
1V	D:maj	144.875	.	voice	1D 1f# 1a
=64	=64	=64	=64	=64	=64
1V	D:maj	147.151	.	voice	1D 1f# 1a
=65	=65	=65	=65	=65	=65
1ii	A:min	149.427	newline	voice	1A 1cc 1ee
=66	=66	=66	=66	=66	=66
1vi7	E:min7	151.701	.	voice	1E 1g 1b 1dd
=67	=67	=67	=67	=67	=67
1V	D:maj	153.975	.	voice	1D 1f# 1a
=68	=68	=68	=68	=68	=68
1V	D:maj	156.249	.	voice	1D 1f# 1a
=69	=69	=69	=69	=69	=69
*>C_verse	*>C_verse	*>C_verse	*>C_verse	*>C_verse	*>C_verse
1I	G:maj	158.523	newline	voice	1G 1b 1dd
=70	=70	=70	=70	=70	=70
1V	D:maj	160.973	.	voice	1D 1f# 1a
=71	=71	=71	=71	=71	=71
1I	G:maj	163.423	.	voice	1G 1b 1dd
=72	=72	=72	=72	=72	=72
1V	D:maj	165.872	.	voice	1D 1f# 1a
=73	=73	=73	=73	=73	=73
1I	G:maj	168.322	newline	voice	1G 1b 1dd
=74	=74	=74	=74	=74	=74
1V	D:maj	170.769	.	voice	1D 1f# 1a
=75	=75	=75	=75	=75	=75
1I	G:maj	173.216	.	voice	1G 1b 1dd
=76	=76	=76	=76	=76	=76
1V	D:maj	175.663	.	voice	1D 1f# 1a
=77	=77	=77	=77	=77	=77
*>B_chorus	*>B_chorus	*>B_chorus	*>B_chorus	*>B_chorus	*>B_chorus
1ii	A:min	178.11	newline	voice	1A 1cc 1ee
=78	=78	=78	=78	=78	=78
1vi7	E:min7	180.429	.	voice	1E 1g 1b 1dd
=79	=79	=79	=79	=79	=79
1V	D:maj	182.749	.	voice	1D 1f# 1a
=80	=80	=80	=80	=80	=80
1V	D:maj	185.068	.	voice	1D 1f# 1a
=81	=81	=81	=81	=81	=81
1ii	A:min	187.388	newline	voice	1A 1cc 1ee
=82	=82	=82	=82	=82	=82
1vi7	E:min7	189.685	.	voice	1E 1g 1b 1dd
=83	=83	=83	=83	=83	=83
1V	D:maj	191.982	.	voice	1D 1f# 1a
=84	=84	=84	=84	=84	=84
1V	D:maj	194.279	.	voice	1D 1f# 1a
=85	=85	=85	=85	=85	=85
*>E_outro	*>E_outro	*>E_outro	*>E_outro	*>E_outro	*>E_outro
1ii	A:min	196.576	newline	synth	1A 1cc 1ee
=86	=86	=86	=86	=86	=86
1vi7	E:min7	198.803	.	synth	1E 1g 1b 1dd
=87	=87	=87	=87	=87	=87
1V	D:maj	201.03	.	synth	1D 1f# 1a
=88	=88	=88	=88	=88	=88
1V	D:maj	203.257	.	synth	1D 1f# 1a
=89	=89	=89	=89	=89	=89
1ii	A:min	205.484	newline	synth	1A 1cc 1ee
=90	=90	=90	=90	=90	=90
1vi7	E:min7	207.695	.	synth	1E 1g 1b 1dd
=91	=91	=91	=91	=91	=91
1V	D:maj	209.906	.	synth	1D 1f# 1a
=92	=92	=92	=92	=92	=92
1V	D:maj	212.117	.	synth	1D 1f# 1a
=93	=93	=93	=93	=93	=93
1ii	A:min	214.328	newline	synth	1A 1cc 1ee
=94	=94	=94	=94	=94	=94
1vi7	E:min7	216.574	.	synth	1E 1g 1b 1dd
=95	=95	=95	=95	=95	=95
1V	D:maj	218.82	.	synth	1D 1f# 1a
=96	=96	=96	=96	=96	=96
1V	D:maj	221.066	.	synth	1D 1f# 1a
=97	=97	=97	=97	=97	=97
1ii	A:min	223.311	newline	synth	1A 1cc 1ee
=98	=98	=98	=98	=98	=98
1vi7	E:min7	225.539	.	synth	1E 1g 1b 1dd
=99	=99	=99	=99	=99	=99
1V	D:maj	227.767	.	synth	1D 1f# 1a
=100	=100	=100	=100	=100	=100
1V	D:maj	229.995	.	synth	1D 1f# 1a
=101	=101	=101	=101	=101	=101
1ii	A:min	232.223	newline	synth	1A 1cc 1ee
=102	=102	=102	=102	=102	=102
1vi7	E:min7	234.475	.	synth	1E 1g 1b 1dd
=103	=103	=103	=103	=103	=103
1V	D:maj	236.727	.	synth	1D 1f# 1a
=104	=104	=104	=104	=104	=104
1V	D:maj	238.979	.	synth	1D 1f# 1a
=105	=105	=105	=105	=105	=105
1r	N	241.231	newline	synth	1r
=106	=106	=106	=106	=106	=106
1r	N	243.515	.	synth	1r
=107	=107	=107	=107	=107	=107
1r	N	245.799	.	synth	1r
=108	=108	=108	=108	=108	=108
1r	N	248.084	.	synth	1r
=109	=109	=109	=109	=109	=109
1r	N	250.368	newline	synth	1r
=110	=110	=110	=110	=110	=110
1r	N	252.611	.	synth	1r
=111	=111	=111	=111	=111	=111
1r	N	254.853	.	synth	1r
=112	=112	=112	=112	=112	=112
1r	N	257.096	.	synth	1r
=113	=113	=113	=113	=113	=113
1r	N	259.339	newline	synth	1r
=114	=114	=114	=114	=114	=114
1r	N	261.59	.	synth	1r
=115	=115	=115	=115	=115	=115
1r	N	263.842	.	synth	1r
=116	=116	=116	=116	=116	=116
1r	N	266.094	.	synth	1r
=117	=117	=117	=117	=117	=117
1r	N	268.346	newline	synth	1r
1r;	N	275.702	.	r	1r;
1r;	N	280.899	.	r	1r;
*-	*-	*-	*-	*-	*-
!!!OTL: Lucky Man
!!!COC: Emerson, Lake & Palmer
!!!BillboardChartDate: 1971/03/27
!!!BillboardPeak: 48
!!!BillboardWeeksOnChart: 19
!!!SampleTargetRank: 66
!!!SampleActualRank: 68
!!!SampleID#: 1180
!!!RDF**harmony: **recip + pitch class of root + harmonic quality
!!!RDF**harte: Chris Harte's syntax, used by MIREX
!!!RDF**phrase: newline = linebreak in original McGill transcription
!!!RDF**timestamp: McGill audio timestamp in seconds
!!!RDF**leadinstrument: original McGill primary instrumentation annotation
!!!RDT: 2017/01/12/
!!!ENC: Nathaniel Condit-Schultz
!!!EST: Awating manual error checking and editing.
